X:1
T:Title
%%score { ( 1 3 ) | ( 2 4 ) }
L:1/8
Q:1/4=100
M:4/4
K:C
V:1 treble nm="Grand Piano"
V:3 treble 
V:2 bass 
V:4 bass 
V:1
 [EG]3 [_E^F] [=FA][=EG][DF][EG] | E6 z2 | F3 E GFEF | D6[K:bass] z2 | %4
w: Flora~H.~Cassel * * * * *||||
 [EG]3 [_E^F] [=EG][Ec][=Fc][Gc] | c6 z2 | B3 B [Gd][EGc][D^FB][CFA] | G6 z2 | %8
w: ||||
 [Ec]3 [Ec] [Ec][Ac][GB][FA] | G6 z2 | [FB]3 [FA] [FG][Fd][FB][FG] |[M:9/8] c6- c z z |] %12
w: ||||
V:2
 [C,C]3 [C,C] [C,C][C,C][C,C][C,C] | [C,G,C]2 [C,G,][C,G,] [C,G,]2 z2 | %2
 [G,D]3 [G,^C] [G,E][G,D][G,=C][G,D] | [G,B,]2 [F,G,][D,G,] [G,,G,]2 z2 | %4
 [C,G,]3 [C,G,] [C,G,][C,G,][D,G,][E,C] | [A,F]2 CA, A,2 z2 | [G,D]3 [G,DG][K:bass] [D,B,]D,D,D, | %7
 z2 B,C D2 z2 | [C,G,]3 [C,G,] [C,G,][C,C][C,C][C,C] | z2 E,F, G,2 z2 | %10
 [G,,G,]3 [G,,G,] [G,,G,][G,,G,][G,,G,][G,,G,] |[M:9/8] G,2 A, A, G,2- G, z z |] %12
V:3
 x8 | z2 CC C2 z2 | x8 | z2[K:bass] B,B, B,2 z2 | x8 | z2 AF F2 z2 | x8 | B,2 DE F2 z2 | x8 | %9
 [CE]2 CD E2 z2 | x8 |[M:9/8] E2 F F E2- E z z |] %12
V:4
 x8 | x8 | x8 | x8 | x8 | F,6 z2 | x4[K:bass] x4 | G,6 z2 | x8 | C,6 z2 | x8 | %11
[M:9/8] C,6- C, z z |] %12

